assets/img/braze_icons/shuffle-02.svg

<svg fill="none" height="24" viewBox="0 0 24 24" width="24" xmlns="http://www.w3.org/2000/svg"><g fill="#801ed7"><path d="m16 2h5c.5523 0 1 .44772 1 1v5c0 .55228-.4477 1-1 1s-1-.44772-1-1v-2.58579l-16.29289 16.29289c-.39053.3905-1.02369.3905-1.41422 0-.39052-.3905-.39052-1.0237 0-1.4142l16.29291-16.2929h-2.5858c-.5523 0-1-.44772-1-1s.4477-1 1-1z"/><path d="m3.70711 2.29289c-.39053-.39052-1.02369-.39052-1.41422 0-.39052.39053-.39052 1.02369 0 1.41422l6 6c.39053.39049 1.02369.39049 1.41422 0 .39049-.39053.39049-1.02369 0-1.41422z"/><path d="m15.7071 14.2929 4.2929 4.2929v-2.5858c0-.5523.4477-1 1-1s1 .4477 1 1v5c0 .5523-.4477 1-1 1h-5c-.5523 0-1-.4477-1-1s.4477-1 1-1h2.5858l-4.2929-4.2929c-.3905-.3905-.3905-1.0237 0-1.4142s1.0237-.3905 1.4142 0z"/></g></svg>

<svg width="24" height="24" viewBox="0 0 24 24" fill="none" xmlns="http://www.w3.org/2000/svg">
<path d="M16 2H21C21.5523 2 22 2.44772 22 3V8C22 8.55228 21.5523 9 21 9C20.4477 9 20 8.55228 20 8V5.41421L3.70711 21.7071C3.31658 22.0976 2.68342 22.0976 2.29289 21.7071C1.90237 21.3166 1.90237 20.6834 2.29289 20.2929L18.5858 4H16C15.4477 4 15 3.55228 15 3C15 2.44772 15.4477 2 16 2Z" fill="#801ED7"/>
<path d="M3.70711 2.29289C3.31658 1.90237 2.68342 1.90237 2.29289 2.29289C1.90237 2.68342 1.90237 3.31658 2.29289 3.70711L8.29289 9.70711C8.68342 10.0976 9.31658 10.0976 9.70711 9.70711C10.0976 9.31658 10.0976 8.68342 9.70711 8.29289L3.70711 2.29289Z" fill="#801ED7"/>
<path d="M15.7071 14.2929L20 18.5858V16C20 15.4477 20.4477 15 21 15C21.5523 15 22 15.4477 22 16V21C22 21.5523 21.5523 22 21 22H16C15.4477 22 15 21.5523 15 21C15 20.4477 15.4477 20 16 20H18.5858L14.2929 15.7071C13.9024 15.3166 13.9024 14.6834 14.2929 14.2929C14.6834 13.9024 15.3166 13.9024 15.7071 14.2929Z" fill="#801ED7"/>
</svg>
